X: 110
T: No_69_I_Use_My_Medicine_to_Cure_the_Sick.krn
N: Derived from No_69_I_Use_My_Medicine_to_Cure_the_Sick.krn
%%abc-version 2.0
%%abcx-abcm2ps-target-version 5.9.1 (29 Sep 2008)
%%abc-creator hum2abc beta
%%abcx-conversion-date 2019/03/15 08:35:45
%%humdrum-veritas 3738971645
%%humdrum-veritas-data 3816028860
%%linebreak <none>
%%barnumbers 0
L: 1/8
M: 3/4
K: C clef=bass
[K:clef=bass][M:3/4]D2D2(3:2:4DB,A,/ z/ | 
D2D2(3DED | 
C2C2(3CA,G, ||  
[M:2/4]A,2A,2 | 
A, z B,A, ||  
[M:3/4]G,2G,2(3:2:4G,F,E,/ z/ | 
G,2G,2(3G,A,A, | 
G,2G,2(3G,E,D, ||  
[M:2/4]D,2D,D,/D,/ | 
D, z/ B,/ (3B,A,G, ||  
[M:3/4]A,2A,2(3A,B,A, [I:setbarnb 12]| 
G,2G,2(3:2:4G,F,E,/ z/ | 
G,2G,2(3G,A,A, | 
G,2G,2(3G,E,D, ||  
[M:2/4]D,2D,D,- | 
D,D,/D,/ D, z | 
[M:3/4]D2D2(3:2:4DB,A,/ z/ | 
D2D2(3DED | 
C2C2(3:2:4CA,G,/ z/ :|]  



